library/images/icon-3.svg

<svg fill="none" height="100" viewBox="0 0 224 100" width="224" xmlns="http://www.w3.org/2000/svg"><g fill="#3090d7"><path d="m174.756 62.7598c-10.267 0-18.62 8.3528-18.62 18.62 0 10.2673 8.353 18.6201 18.62 18.6201s18.62-8.3528 18.62-18.6201c0-10.2672-8.357-18.62-18.62-18.62zm0 29.7918c-6.16 0-11.172-5.0124-11.172-11.1722s5.012-11.1718 11.172-11.1718c6.159 0 11.172 5.0125 11.172 11.1718s-5.013 11.1722-11.172 11.1722z"/><path d="m48.1399 62.7598c-10.2673 0-18.6201 8.3528-18.6201 18.62 0 10.2673 8.3528 18.6201 18.6201 18.6201 10.2669 0 18.6201-8.3528 18.6201-18.6201-.0004-10.2672-8.3572-18.62-18.6201-18.62zm0 29.7918c-6.1593 0-11.1722-5.0124-11.1722-11.1722s5.0125-11.1718 11.1722-11.1718c6.1593 0 11.1718 5.0125 11.1718 11.1718s-5.0125 11.1722-11.1718 11.1722z"/><path d="m219.444 50.6868v-17.7187c0-.119-.142-.8195-.216-1.0614-.075-.2459-.164-.469-.283-.6926-.056-.1007-15.023-22.65704-15.023-22.65704-.57-.85263-1.467-1.43761-2.484-1.60892-93.293-15.65942-117.2051-.06321-118.2962.69657l-28.9209 21.69229-47.33178 3.6385c-1.34084.1042-2.52127.9237-3.08707 2.1377-.14167.2977-1.54528 3.4524-2.61063 9.0232l-.97948 7.4479c-.58847 7.8205-.100693 18.2177 3.38131 30.8084.43939 1.5936 1.92887 2.7074 3.58269 2.7074h11.17176c2.0667 0 3.7205-1.6983 3.724-3.7649 0-.0188.0039-.0371.0039-.0597.0558-14.3487 11.701-25.9673 26.0644-25.9673 14.3971 0 26.068 11.6709 26.068 26.068-.2681 2.2605 1.5156 3.7239 3.7239 3.7239h67.0321c2.067 0 3.72-1.6983 3.724-3.7649 0-.0222.004-.041.004-.0632.06-14.3487 11.701-25.9599 26.064-25.9599 14.397 0 26.068 11.6709 26.068 26.068-.268 2.2606 1.516 3.7239 3.724 3.7239h11.172c1.3 0 2.547-.6704 3.191-1.7985 8.238-14.5353 2.358-28.8612.533-32.6187zm-100.548-23.3013c0 1.0279-.834 1.8622-1.862 1.8622l-44.707.0039c-1.7876 0-2.5474-2.2789-1.1172-3.3517l16.1511-12.1177c.0558-.0449.1007-.0745.1639-.1115.8453-.4843 8.5503-4.56571 29.3712-5.8355 1.069-.06713 2 .79334 2 1.86567zm38.8 1.8622-29.494.0039c-1.028 0-1.862-.8343-1.862-1.8622v-18.05033c0-1.02393.797-1.86218 1.821-1.86959 5.809-.04097 12.364.12292 19.748.56972.637.03705 1.226.39101 1.538.94941 1.661 2.97159 7.15 12.67649 9.876 17.49149.708 1.2406-.2 2.7637-1.627 2.7676zm47.585-.0039-34.733.0039c-.667 0-1.285-.3575-1.617-.9385l-9.388-16.4301c-.748-1.3073.265-2.92711 1.765-2.78544 10.688 1.01304 22.784 2.55094 36.491 4.80414.51.0854.98.3796 1.27.8116l7.761 11.6413c.823 1.2362-.063 2.8931-1.549 2.8931z"/></g></svg>

<svg width="224" height="100" viewBox="0 0 224 100" fill="none" xmlns="http://www.w3.org/2000/svg">
<path d="M174.756 62.7598C164.489 62.7598 156.136 71.1126 156.136 81.3798C156.136 91.6471 164.489 99.9999 174.756 99.9999C185.023 99.9999 193.376 91.6471 193.376 81.3798C193.376 71.1126 185.019 62.7598 174.756 62.7598ZM174.756 92.5516C168.596 92.5516 163.584 87.5392 163.584 81.3794C163.584 75.2196 168.596 70.2076 174.756 70.2076C180.915 70.2076 185.928 75.2201 185.928 81.3794C185.928 87.5387 180.915 92.5516 174.756 92.5516Z" fill="#3090D7"/>
<path d="M48.1399 62.7598C37.8726 62.7598 29.5198 71.1126 29.5198 81.3798C29.5198 91.6471 37.8726 99.9999 48.1399 99.9999C58.4068 99.9999 66.76 91.6471 66.76 81.3798C66.7596 71.1126 58.4028 62.7598 48.1399 62.7598ZM48.1399 92.5516C41.9806 92.5516 36.9677 87.5392 36.9677 81.3794C36.9677 75.2196 41.9802 70.2076 48.1399 70.2076C54.2992 70.2076 59.3117 75.2201 59.3117 81.3794C59.3117 87.5387 54.2992 92.5516 48.1399 92.5516Z" fill="#3090D7"/>
<path d="M219.444 50.6868V32.9681C219.444 32.8491 219.302 32.1486 219.228 31.9067C219.153 31.6608 219.064 31.4377 218.945 31.2141C218.889 31.1134 203.922 8.55706 203.922 8.55706C203.352 7.70443 202.455 7.11945 201.438 6.94814C108.145 -8.71128 84.2329 6.88493 83.1418 7.64471L54.2209 29.337L6.88912 32.9755C5.54828 33.0797 4.36785 33.8992 3.80205 35.1132C3.66038 35.4109 2.25677 38.5656 1.19142 44.1364L0.21194 51.5843C-0.37653 59.4048 0.111247 69.802 3.59325 82.3927C4.03264 83.9863 5.52212 85.1001 7.17594 85.1001H18.3477C20.4144 85.1001 22.0682 83.4018 22.0717 81.3352C22.0717 81.3164 22.0756 81.2981 22.0756 81.2755C22.1314 66.9268 33.7766 55.3082 48.14 55.3082C62.5371 55.3082 74.208 66.9791 74.208 81.3762C73.9399 83.6367 75.7236 85.1001 77.9319 85.1001H144.964C147.031 85.1001 148.684 83.4018 148.688 81.3352C148.688 81.313 148.692 81.2942 148.692 81.272C148.752 66.9233 160.393 55.3121 174.756 55.3121C189.153 55.3121 200.824 66.983 200.824 81.3801C200.556 83.6407 202.34 85.104 204.548 85.104H215.72C217.02 85.104 218.267 84.4336 218.911 83.3055C227.149 68.7702 221.269 54.4443 219.444 50.6868ZM118.896 27.3855C118.896 28.4134 118.062 29.2477 117.034 29.2477L72.327 29.2516C70.5394 29.2516 69.7796 26.9727 71.2098 25.8999L87.3609 13.7822C87.4167 13.7373 87.4616 13.7077 87.5248 13.6707C88.3701 13.1864 96.0751 9.10499 116.896 7.8352C117.965 7.76807 118.896 8.62854 118.896 9.70087V27.3855ZM157.696 29.2477L128.202 29.2516C127.174 29.2516 126.34 28.4173 126.34 27.3894V9.33907C126.34 8.31514 127.137 7.47689 128.161 7.46948C133.97 7.42851 140.525 7.5924 147.909 8.0392C148.546 8.07625 149.135 8.43021 149.447 8.98861C151.108 11.9602 156.597 21.6651 159.323 26.4801C160.031 27.7207 159.123 29.2438 157.696 29.2477ZM205.281 29.2438L170.548 29.2477C169.881 29.2477 169.263 28.8902 168.931 28.3092L159.543 11.8791C158.795 10.5718 159.808 8.95199 161.308 9.09366C171.996 10.1067 184.092 11.6446 197.799 13.8978C198.309 13.9832 198.779 14.2774 199.069 14.7094L206.83 26.3507C207.653 27.5869 206.767 29.2438 205.281 29.2438Z" fill="#3090D7"/>
</svg>
